X:1
T:The Communion Hymn
T:KIEVAN CHANT
T:Copyright © 2003 by Steve Jones. Distributed under terms of the CPDL license (http://www.cpdl.org). Edition may be freely distributed, duplicated, performed, or recorded. 
T:The Communion Hymn
T:Copyright © 2003 by Steve Jones. Distributed under terms of the CPDL license (http://www.cpdl.org). Edition may be freely distributed, duplicated, performed, or recorded. 
C:KIEVAN CHANT
Z:Copyright © 2003 by Steve Jones. Distributed under terms of the CPDL license (http://www.cpdl.org).
Z:Edition may be freely distributed, duplicated, performed, or recorded.
%%score { ( 1 2 ) | ( 3 4 ) }
L:1/8
M:4/4
K:G
V:1 treble nm="Organ" snm="Org."
V:2 treble 
V:3 bass 
V:4 bass 
V:1
 (E2 F2) G2 A2 | F8 | G4 (GA B2 | A6) G2 | F6 z2 | (B4 A2) G2 | (F4 G2) A2 | (B8 | A4) A3 B | %9
w: O _ taste and|see,|O taste _ _|_ and|see|that _ the|Lord _ is|good|_ that the|
 (G2 FG A2 G2 | F4) F4 | E8 || E2 F2 G2 A2 | F4 G2 GA | B2 BB A2 B2 | G6 G2 | F6 z2 | (B4 A2) G2 | %18
w: Lord _ _ _ _|_ is|good.|Al- le- lu- i-|a, Al- le- *|lu- i- a, Al- le|lu- i-|a,|Al- * le-|
 F2 FF G2 A2 | B6 B2 | A4 (A3 B | G2 FG A2) G2 | F4 F4 | E8 |] %24
w: lu- i- a, Al- le-|lu- i-|a, Al- *|* * * * le-|lu- i-|a.|
V:2
 (E2 F2) G2 FE | ^D8 | E4 (EF G2 | F6) E2 | ^D6 x2 | (G4 F2) E2 | (^D4 E2) F2 | (G8 | F4) F3 F | %9
 (E4 E4 | E4) ^D4 | E8 || E2 F2 G2 FE | ^D4 E2 EF | G2 GG F2 G2 | E6 E2 | ^D6 x2 | (G4 F2) E2 | %18
 ^D2 DD E2 F2 | G6 G2 | F4 (F4 | E6) E2 | E4 ^D4 | E8 |] %24
V:3
 G,2 A,2 B,2 A,2 | B,8 | B,4 B, D3- | D6 B,2 | B,6 z2 | D6 B,2 | B,6 D2 | D8- | D4 D3 D | %9
 B,4 A,2 B,2 | C4 B,4 | E,8 || G,2 A,2 B,2 A,2 | B,4 B,2 B,C | D2 DD D2 D2 | B,6 B,2 | B,6 z2 | %17
 D6 B,2 | B,2 B,B, B,2 D2 | D6 D2 | D4 D4 | B,4 A,2 B,2 | C4 B,4 | E,8 |] %24
V:4
 E,4 E,2 D,2 | B,,8 | E,4 E,D, G,2 | D,6 E,2 | B,,6 A,,2 | G,,4 D,2 E,2 | B,,4 E,2 D,2 | %7
 G,,2 A,,2 B,,2 G,,2 | D,4 D,3 D, | E,4 C,2 B,,2 | A,,4 B,,4 | E,8 || E,2 E,2 E,2 C,2 | %13
 B,,4 E,2 E,=D, | G,2 G,G, D,2 D,2 | E,4 G,,2 A,,2 | B,,6 A,,2 | G,,4 D,2 E,2 | %18
 B,,2 B,,B,, E,2 D,2 | G,,2 A,,2 B,,2 G,,2 | D,4 D,4 | E,4 C,2 B,,2 | A,,4 B,,4 | E,8 |] %24

